X:1
T:Title
%%score { ( 1 3 4 ) | ( 2 5 6 ) }
L:1/8
M:2/4
K:Ab
V:1 treble nm="Grand Piano"
V:3 treble 
V:4 treble 
V:2 bass 
V:5 bass 
V:6 bass 
V:1
 z[Q:1/4=108] F2 G | A2 z2 | z2 z G | A2 z2 | z2 z G | A2 GF | BA AG | G4- | G z G,2 | G2 z2 | %10
 z2 z F | G2 z2 | z2 z F | A2 G2 | F4- |[M:1/8] F |[M:3/8] z z G |[M:2/4] A2 z2 | z2 z G | A2 z2 | %20
 z2 z G | A2 GF | BA AG | z2 G,2 | z2 z A | B2 z2 | z2 z A | B2 z2 | z2 z A | B2 cd | c4- | %31
[M:1/8] c |[M:3/8] z3 |[M:2/4] z2 c2- | c z z2 | G4- | G z z2 | z2 B2- | B z z2 | F4- | F z z2 | %41
 z2 A2- | A z z2 | =E4- | E2 z2 | BB/B/ AB | z2 c2- |[M:1/8] c |[M:3/8] c_c=c |[M:2/4] z2 c2- | %50
 c z z2 | G4- | G z z2 | z2 B2- | B z z2 | F4- | F z z2 | z2 A2- | A z z2 | =E4- | E2 z2 | %61
 BB/B/ AB | z2 c2- |[M:1/8] c |[M:3/8] F2 G |[M:2/4] A2 z2 | z2 z G | A2 z2 | z2 z G | A2 GF | %70
 BA AG | G4- | G z G,2 | G2 z2 | z2 z F | G2 z2 | z2 z F | A2 G2 | F4- |[M:9/8] F3 z3 z3 |] %80
V:2
 z4 | F,2 [A,C]2 | z2 A,2 | F,2 [A,C]2 | z2 A,2 | C,2 [A,C]2 | C,2 [F,A,]2 | C,2 =E,2 | z .=E3 | %9
 C,2 [G,B,]2 | z2 =E,2 | C,2 [G,B,]2 | z2 =E,2 | C,2 [=E,G,]2 | F,2 A,2 |[M:1/8] F, | %16
[M:3/8][K:treble] F2 z |[M:2/4][K:bass] F,2 [A,C]2 | z2 A,2 | F,2 [A,C]2 | z2 A,2 | F,2 [A,C]2 | %22
 C,2 [F,A,]2 | C,2 =E,2 | z .G3[K:bass] | C,2 [G,B,]2 | z2 =E,2 | C,2 [G,B,]2 | z2 =E,2 | %29
 =E,2 [G,B,]2 | F,2 A,2 |[M:1/8] F, |[M:3/8][K:treble] c_c=c |[M:2/4][K:bass] C,2 [=E,G,]2 | z4 | %35
 F,2 A,2 | F,[K:treble]B =AB | C,2 [=E,G,]2 | z4 | F,2 A,2 | F,[K:treble]A GA | F,2 [A,C]2 | z4 | %43
 C,2 =E,2 | z2 [=E,G,]2 | C,2 [G,B,]2 | F,2 [A,C]2 |[M:1/8] z |[M:3/8] z3 |[M:2/4] C,2 [=E,G,]2 | %50
 z4 | F,2 A,2 | F,[K:treble]B =AB | C,2 [=E,G,]2 | z4 | F,2 A,2 | F,[K:treble]A GA | F,2 [A,C]2 | %58
 z4 | C,2 =E,2 | z2 [=E,G,]2 | C,2 [G,B,]2 | F,2 [A,C]2 |[M:1/8] z |[M:3/8] z3 | %65
[M:2/4] F,2 [A,C]2 | z2 A,2 | F,2 [A,C]2 | z2 A,2 | C,2 [A,C]2 | C,2 [F,A,]2 | C,2 =E,2 | z .=E3 | %73
 C,2 [G,B,]2 | z2 =E,2 | C,2 [G,B,]2 | z2 =E,2 | C,2 [=E,G,]2 | F,2 A,2 |[M:9/8] .F,3 z3 z3 |] %80
V:3
 x4 | z2 G2- | G .F3 | z2 G2- | G .F3 | x4 | x4 | z2 G,2 | z2 z F | z2 F2- | F .=E3 | z2 F2- | %12
 F .=E3 | x4 | z2 C2 |[M:1/8] x |[M:3/8] z C2 |[M:2/4] z2 G2- | G .F3 | z2 G2- | G .F3 | x4 | x4 | %23
 G4- | G z G,2 | z2 A2- | A .G3 | z2 A2- | A .G3 | x4 | z2 C2 |[M:1/8] x |[M:3/8] x3 | %33
[M:2/4] d2 z2 | B,B BA | z2 C2 | x4 | c2 z2 | B,A AG | z2 C2 | x4 | B2 z2 | F,G GF | z2 G,2 | %44
 B,2 GA | x4 | c2 z2 |[M:1/8] F, |[M:3/8] x3 |[M:2/4] d2 z2 | B,B BA | z2 C2 | x4 | c2 z2 | %54
 B,A AG | z2 C2 | x4 | B2 z2 | F,G GF | z2 G,2 | B,2 GA | x4 | c2 z2 |[M:1/8] F, |[M:3/8] x3 | %65
[M:2/4] z2 G2- | G .F3 | z2 G2- | G .F3 | x4 | x4 | z2 G,2 | z2 z F | z2 F2- | F .=E3 | z2 F2- | %76
 F .=E3 | x4 | z2 C2 |[M:9/8] x9 |] %80
V:4
 x4 | x4 | C,2 C2 | x4 | C,2 C2 | x4 | x4 | x4 | x4 | x4 | C,2 G,2 | x4 | C,2 G,2 | x4 | x4 | %15
[M:1/8] x |[M:3/8] x3 |[M:2/4] x4 | C,2 C2 | x4 | C,2 C2 | x4 | x4 | x4 | x4 | x4 | C,2 G,2 | x4 | %28
 C,2 G,2 | x4 | x4 |[M:1/8] x |[M:3/8] x3 |[M:2/4] x4 | x4 | x4 | x4 | x4 | x4 | x4 | x4 | x4 | %42
 x4 | x4 | x4 | x4 | x4 |[M:1/8] x |[M:3/8] x3 |[M:2/4] x4 | x4 | x4 | x4 | x4 | x4 | x4 | x4 | %57
 x4 | x4 | x4 | x4 | x4 | x4 |[M:1/8] x |[M:3/8] x3 |[M:2/4] x4 | C,2 C2 | x4 | C,2 C2 | x4 | x4 | %71
 x4 | x4 | x4 | C,2 G,2 | x4 | C,2 G,2 | x4 | x4 |[M:9/8] x9 |] %80
V:5
 x4 | x4 | x4 | x4 | x4 | x4 | x4 | x4 | B,2 z2 | x4 | x4 | x4 | x4 | x4 | x4 |[M:1/8] x | %16
[M:3/8][K:treble] z A,2 |[M:2/4][K:bass] x4 | x4 | x4 | x4 | x4 | x4 | x4 | B,2[K:bass] z2 | x4 | %26
 x4 | x4 | x4 | x4 | x4 |[M:1/8] x |[M:3/8][K:treble] x3 |[M:2/4][K:bass] x4 | x4 | x4 | %36
 x[K:treble] x3 | x4 | x4 | x4 | x[K:treble] x3 | x4 | x4 | x4 | x4 | x4 | x4 |[M:1/8] x | %48
[M:3/8] x3 |[M:2/4] x4 | x4 | x4 | x[K:treble] x3 | x4 | x4 | x4 | x[K:treble] x3 | x4 | x4 | x4 | %60
 x4 | x4 | x4 |[M:1/8] x |[M:3/8] x3 |[M:2/4] x4 | x4 | x4 | x4 | x4 | x4 | x4 | B,2 z2 | x4 | x4 | %75
 x4 | x4 | x4 | x4 |[M:9/8] x9 |] %80
V:6
 x4 | x4 | x4 | x4 | x4 | x4 | x4 | x4 | z2 =E,2 | x4 | x4 | x4 | x4 | x4 | x4 |[M:1/8] x | %16
[M:3/8][K:treble] x3 |[M:2/4][K:bass] x4 | x4 | x4 | x4 | x4 | x4 | x4 | z2[K:bass] =E,2 | x4 | %26
 x4 | x4 | x4 | x4 | x4 |[M:1/8] x |[M:3/8][K:treble] x3 |[M:2/4][K:bass] x4 | x4 | x4 | %36
 x[K:treble] x3 | x4 | x4 | x4 | x[K:treble] x3 | x4 | x4 | x4 | x4 | x4 | x4 |[M:1/8] x | %48
[M:3/8] x3 |[M:2/4] x4 | x4 | x4 | x[K:treble] x3 | x4 | x4 | x4 | x[K:treble] x3 | x4 | x4 | x4 | %60
 x4 | x4 | x4 |[M:1/8] x |[M:3/8] x3 |[M:2/4] x4 | x4 | x4 | x4 | x4 | x4 | x4 | z2 =E,2 | x4 | %74
 x4 | x4 | x4 | x4 | x4 |[M:9/8] x9 |] %80

